X:1
T:Title
%%score { ( 1 4 ) | ( 2 3 ) }
L:1/8
Q:1/4=112
M:4/4
K:C
V:1 treble nm="Grand Piano"
V:4 treble 
V:2 bass 
V:3 bass 
V:1
 [EG]2 [FA]2 [EG]2 E2 | c2 A2 [CEG]4 | [CEG]2 [CFA]2 [CEG]2 [G,CE]2 | [B,D]6 z2 | %4
w: Frank~M.~Davis * * *||||
 [EG]2 [FA]2 [EG]2 E2 | c2 A2 [CEG]4 | [DB]2 [^Fc]2 [GB]2 [FA]2 | G6 z2 | GGGG [B,FA]2 [FB]2 | %9
w: |||||
 [Ec]4 [EG]4 | GGGG [B,FA]2 [FB]2 | [Ec]6[K:bass] z2 | dddd e2 [Gc]2 | [Ac]4 A4 | %14
w: |||||
 GGGc [Ec]2 [DB]2 | [Ec]6 z2 |] %16
w: ||
V:2
 [C,C]2 [C,C]2 [C,C]2 [C,G,C]2 | [F,F]2- [F,CF]2 C,4 | C,2 C,2 C,2 C,2 | z4 G,2 z2 | %4
 [C,C]2 [C,C]2 [C,C]2 [C,G,C]2 | [F,F]2- [F,CF]2 C,4 | [D,G,]2 [D,A,]2 [D,D]2 [D,C]2 | [G,B,]6 z2 | %8
 FFFF[K:bass] z2 G,2 | [C,G,]C,C,C, C,2 C,2 | FFFF[K:bass] z2 G,2 | [C,G,]C,C,C, C,2 z2 | %12
 [G,B,G][G,B,G][G,B,G][G,B,G] [CG]2[K:bass] [E,C]2 | [F,C]4 [F,CF]4 | %14
 [G,CE][G,CE][G,CE][G,E] [G,,G,]2 [G,,G,]2 | [C,G,]6 z2 |] %16
V:3
 x8 | A,2 z2 z4 | x8 | G,4 z F,E,D, | x8 | A,2 z2 z4 | x8 | x8 | [G,B,]4[K:bass] G,,4 | x8 | %10
 [G,B,]4[K:bass] G,,4 | x8 | x6[K:bass] x2 | x8 | x8 | x8 |] %16
V:4
 x8 | x8 | x8 | x8 | x8 | x8 | x8 | x8 | x8 | z G,G,G, C2 C2 | x8 | z[K:bass] G,G,G, G,2 z2 | x8 | %13
 x8 | x8 | x8 |] %16

